X:1
T:[ID 2-17]
T:[ID 2-17]
L:1/8
M:4/4
K:C
V:1 treble 
V:1
 Bezecug adade |"^onigs Quadrille\n[T:K\" g uadg eTd |][K:G][M:2/4] GG/G/ GA | BB/B/ Bc | d>g d>g | %5
 d/e/d/c/ B/c/B/A/ | GG/G/ GA | BB/B/ Bc | dB e/d/c/B/ | AA/A/ A2 :: AA/A/ AG/A/ | BB/B/ B2 | %12
 ff/f/ fe/f/ | gg/g/ g2 | ee e/g/f/e/ | d/e/d/c/ Bc | B/c/d/e/ d/c/B/A/ | GG/G/ G2 :| %18
[M:2/4]"^Trio" !fermata![G,DBg]2 d2 | d/e/d/c/ Bc | dgfe | e2 d2 | c/d/c/B/ AA | B/c/B/A/ GG | %24
 A/B/A/G/ FF | GG G2 :: ddde | fffg | aaab | !fermata!c'3 f | gb/g/ dd | ce/c/ AA | A/B/A/G/ FF | %33
 GG G2 :| %34

